Origami/24x24/apps/gps.svg

<svg width="24" height="24" version="1" xmlns="http://www.w3.org/2000/svg">
 <path d="m10 2.5v2.2597656a8 8 0 0 0 -5.734375 5.7402344h-2.265625v4h2.2597656a8 8 0 0 0 5.7402344 5.734375v2.265625h4v-2.259766a8 8 0 0 0 5.734375 -5.740234h2.265625v-4h-2.259766a8 8 0 0 0 -5.740234 -5.734375v-2.265625h-4z" style="opacity:.2"/>
 <path d="m10 2v2.2597656a8 8 0 0 0 -5.734375 5.7402344h-2.265625v4h2.2597656a8 8 0 0 0 5.7402344 5.734375v2.265625h4v-2.259766a8 8 0 0 0 5.734375 -5.740234h2.265625v-4h-2.259766a8 8 0 0 0 -5.740234 -5.734375v-2.265625h-4z" style="fill:#1e80ff"/>
 <rect transform="matrix(0,-1,-1,0,0,0)" x="-17.5" y="-17" width="10" height="10" rx="5" ry="5" style="opacity:.2"/>
 <rect transform="matrix(0,-1,-1,0,0,0)" x="-17" y="-17" width="10" height="10" rx="5" ry="5" style="fill:#ffffff"/>
 <path d="m10 2v0.5h4v-0.5h-4zm0 2.2597656a8 8 0 0 0 -5.734375 5.7402344h-2.265625v0.5h2.265625a8 8 0 0 1 5.734375 -5.7402344v-0.5zm4 0.0058594v0.5a8 8 0 0 1 5.740234 5.734375h2.259766v-0.5h-2.259766a8 8 0 0 0 -5.740234 -5.734375z" style="fill:#ffffff;opacity:.2"/>
</svg>

<svg xmlns="http://www.w3.org/2000/svg" width="24" height="24" version="1">
 <path style="opacity:0.2" d="m 10,2.5 0,2.2597656 A 8,8 0 0 0 4.265625,10.5 L 2,10.5 l 0,4 2.2597656,0 A 8,8 0 0 0 10,20.234375 L 10,22.5 l 4,0 0,-2.259766 A 8,8 0 0 0 19.734375,14.5 L 22,14.5 l 0,-4 -2.259766,0 A 8,8 0 0 0 14,4.765625 L 14,2.5 l -4,0 z"/>
 <path style="fill:#1e80ff" d="M 10 2 L 10 4.2597656 A 8 8 0 0 0 4.265625 10 L 2 10 L 2 14 L 4.2597656 14 A 8 8 0 0 0 10 19.734375 L 10 22 L 14 22 L 14 19.740234 A 8 8 0 0 0 19.734375 14 L 22 14 L 22 10 L 19.740234 10 A 8 8 0 0 0 14 4.265625 L 14 2 L 10 2 z"/>
 <rect style="opacity:0.2" width="10" height="10" x="-17.5" y="-17" rx="5" ry="5" transform="matrix(0,-1,-1,0,0,0)"/>
 <rect style="fill:#ffffff" width="10" height="10" x="-17" y="-17" rx="5" ry="5" transform="matrix(0,-1,-1,0,0,0)"/>
 <path style="opacity:0.2;fill:#ffffff" d="M 10 2 L 10 2.5 L 14 2.5 L 14 2 L 10 2 z M 10 4.2597656 A 8 8 0 0 0 4.265625 10 L 2 10 L 2 10.5 L 4.265625 10.5 A 8 8 0 0 1 10 4.7597656 L 10 4.2597656 z M 14 4.265625 L 14 4.765625 A 8 8 0 0 1 19.740234 10.5 L 22 10.5 L 22 10 L 19.740234 10 A 8 8 0 0 0 14 4.265625 z"/>
</svg>
